X: 3196
T: Beehive, The
R: reel
M: 4/4
K: Edorian
|"Em"Beed B2 ef|g2 bg ag fg|Begb agfg|e2 feed BA|
Beed B2 ef|g2 bg ag fg|"D"efed Bcde|"A"EFAB FEED:|
|:"A"ABAA FEFA|"Em"Beed B2 ef|feed edBA|Beed B2 ef|
feed edBA|BABc dcde|"D"fgfe dBAF|"A"EFAB FEED:|

